!!!!SEGMENT: pl-stab--6a--001-004_dankowski-adalbert--vespera-de-confes-ex-c-beatus-vir.krn
!!!cenid: 18xx:3464
!!!COM: Dankowski, Adalbert
!!!COM-rismid: pe30000793
!!!CDT: ~1760-~1836
!!!CNT: Polish
!!!OPR: Vespera de Confes ex C
!!!OTL: Beatus vir
!!!OMV: 004
!!!PDT:
!!!AGN: Sacred; Vespers
!!!SMS-siglum: PL-STAb
!!!SMS-shelfmark: 6a
!!!SMS-shelfwork: 001-004 M
!!!SMS-variant:
!!!SMS-altvar:
!!!NIFC-rismid: 301050559
!!!URL-scan: https://repozytorium.nifc.pl/islandora/object/pl-stab%3A1600/datastream/PDF/view
!!!ONB-nifc: UWAGA: części Vesperae: 1. Domine ad adjuvandum, 2. Dixit Dominus, 3. Confitebor, 4. Beatus vir, 5. Laudate pueri, 6. Laudate Dominus, 7. Magnificat
!!!AIN: 1 alto 3 empty 1 organ 1 tenor 2 violn 1 vox
!!!key:
**kern	**fba	**kern	**dynam	**kern	**dynam	**kern	**text	**kern	**text	**kern	**text	**dynam	**kern	**text	**text	**kern	**kern
*part9	*part9	*part8	*part8	*part7	*part7	*part6	*part6	*part5	*part5	*part4	*part4	*part4	*part3	*part3	*part3	*part2	*part1
*staff9	*staff9	*staff8	*	*staff7	*	*staff6	*staff6	*staff5	*staff5	*staff4	*staff4	*	*staff3	*staff3	*staff3	*staff2	*staff1
*Iorgan	*	*Ivioln	*	*Ivioln	*	*Iempty	*	*Itenor	*	*Ialto	*	*	*Ivox	*	*	*Iempty	*Iempty
*I"Organo	*	*I"Violino Secundo	*	*I"Violino Primo	*	*I"Baſ so	*	*I"Tenore	*	*I"Alto	*	*	*I"Canto	*	*	*I"Clarino Secundo in D	*I"Clarino Primo in D
*I'Org.	*	*I'Vn II	*	*I'Vn I	*	*I'B.	*	*I'T.	*	*I'A.	*	*	*I'C.	*	*	*I'Cl II in D	*I'Cl I in D
*ICklav	*	*ICstr	*	*ICstr	*	*ICvox	*	*ICvox	*	*ICvox	*	*	*ICvox	*	*	*ICbras	*ICbras
*clefF4	*	*clefG2	*	*clefG2	*	*clefF4	*	*clefC4	*	*clefC3	*	*	*clefC1	*	*	*clefG2	*clefG2
*	*	*	*	*	*	*	*	*	*	*	*	*	*	*	*	*ITrd-1c-2	*ITrd-1c-2
*k[f#c#]	*	*k[f#c#]	*	*k[f#c#]	*	*k[f#c#]	*	*k[f#c#]	*	*k[f#c#]	*	*	*k[f#c#]	*	*	*k[f#c#]	*k[f#c#]
*D:	*	*D:	*	*D:	*	*D:	*	*D:	*	*D:	*	*	*D:	*	*	*D:	*D:
*M2/2	*	*M2/2	*	*M2/2	*	*M2/2	*	*M2/2	*	*M2/2	*	*	*M2/2	*	*	*M2/2	*M2/2
*met(c|)	*	*met(c|)	*	*met(c|)	*	*met(c|)	*	*met(c|)	*	*met(c|)	*	*	*met(c|)	*	*	*met(c|)	*met(c|)
=1	=1	=1	=1	=1	=1	=1	=1	=1	=1	=1	=1	=1	=1	=1	=1	=1	=1
*	*	*	*	*	*	*2\right	*	*2\right	*	*2\right	*	*	*2\right	*	*	*	*2\right
!LO:TX:a:t=Tutti	!	!LO:TX:b:t=|	!	!	!	!LO:TX:a:t=Allabreve	!	!LO:TX:a:t=Allabreve	!	!LO:TX:a:t=Allabreve	!	!	!	!	!	!LO:TX:a:t=Allabreve in D	!LO:TX:a:t=Allabreve in D
!LO:TX:a:rj:t=Allabreve	!	!LO:TX:a:t=Allabreve	!LO:DY:a	!LO:TX:a:t=Allabreve	!LO:DY:a	!	!	!	!	!	!	!	!LO:TX:a:t=Allabreve	!	!	!	!
4D\	.	8f#/L	f	(4.dd\	f	2D\	Be-	2A\	Be-	2f#\	Be-	.	2dd\	Be-	Do-	2f#/	2dd\
!	!	!LO:TX:b:t=|	!	!	!	!	!	!	!	!	!	!	!	!	!	!	!
.	.	8a/	.	.	.	.	.	.	.	.	.	.	.	.	.	.	.
!	!	!LO:TX:b:t=|	!	!	!	!	!	!	!	!	!	!	!	!	!	!	!
4D\	.	8f#/	.	.	.	.	.	.	.	.	.	.	.	.	.	.	.
!	!	!LO:TX:b:t=|	!	!	!	!	!	!	!	!	!	!	!	!	!	!	!
.	.	8a/J	.	16cc#\LL)	.	.	.	.	.	.	.	.	.	.	.	.	.
.	.	.	.	16dd\JJ	.	.	.	.	.	.	.	.	.	.	.	.	.
!	!	!LO:TX:b:t=|	!	!	!	!	!	!	!	!	!	!	!	!	!	!	!
4C#\	6 5	8g/L	.	8ff#\L	.	4C#\	-a-	4A\	-a-	4g\	-a-	.	4ee\	-a-	-mi-	2a/	2ee\
!	!	!LO:TX:b:t=|	!	!	!	!	!	!	!	!	!	!	!	!	!	!	!
.	.	8a/	.	8ee\	.	.	.	.	.	.	.	.	.	.	.	.	.
!	!	!LO:TX:b:t=|	!	!	!	!	!	!	!	!	!	!	!	!	!	!	!
4C#\	.	8g/	.	8dd\	.	4C#\	-tus	4A\	-tus	4g\	-tus	.	4ee\	-tus	-ne	.	.
!	!	!LO:TX:b:t=|	!	!	!	!	!	!	!	!	!	!	!	!	!	!	!
.	.	8a/J	.	8ee\J	.	.	.	.	.	.	.	.	.	.	.	.	.
=2	=2	=2	=2	=2	=2	=2	=2	=2	=2	=2	=2	=2	=2	=2	=2	=2	=2
*	*	*tremolo	*	*	*	*	*	*	*	*	*	*	*	*	*	*2\right	*
4D\	.	8f#/L	.	(4.ff#\	.	2D\	Vir	2A\	Vir	2f#\	Vir	.	2dd\	vir	pro-	2dd\	2ff#\
.	.	8a/	.	.	.	.	.	.	.	.	.	.	.	.	.	.	.
4D\	.	8f#/	.	.	.	.	.	.	.	.	.	.	.	.	.	.	.
.	.	8a/J	.	8aa\)	.	.	.	.	.	.	.	.	.	.	.	.	.
!	!	!	!	!LO:TX:a:t=|	!	!	!	!	!	!	!	!	!	!	!	!	!
4F#\	6	8f#/L	.	4dd\	.	2F#\	qui	2A\	qui	2a\	qui	.	2dd\	qui	-ba-	2dd\	2ff#\
.	.	8a/	.	.	.	.	.	.	.	.	.	.	.	.	.	.	.
!	!	!	!	!LO:TX:a:t=|	!	!	!	!	!	!	!	!	!	!	!	!	!
4F#\	.	8f#/	.	4dd\	.	.	.	.	.	.	.	.	.	.	.	.	.
.	.	8a/J	.	.	.	.	.	.	.	.	.	.	.	.	.	.	.
=3	=3	=3	=3	=3	=3	=3	=3	=3	=3	=3	=3	=3	=3	=3	=3	=3	=3
4G\	6	8g/L	.	8ee\L	.	4G\	ti-	4B\	ti-	4g\	ti-	.	4ee\	ti-	-sti	2ee\	2gg\
.	.	8b/	.	8ff#\	.	.	.	.	.	.	.	.	.	.	.	.	.
4G\	.	8g/	.	8gg\	.	4G\	-met	4B\	-met	4g\	-met	.	4ee\	-met	me	.	.
.	.	8b/J	.	8ee\J	.	.	.	.	.	.	.	.	.	.	.	.	.
.	.	.	.	8qqdd/	.	.	.	.	.	.	.	.	.	.	.	.	.
4A\	.	8e/L	.	4cc#\	.	4A\	Do-	4A\	Do-	4e\	Do-	.	4cc#\	Do-	et	2a/	2ee\
.	.	8g/	.	.	.	.	.	.	.	.	.	.	.	.	.	.	.
4A\	.	8e/	.	8b\L	.	4A\	-mi-	4A\	-mi-	4e\	-mi-	.	4cc#\	-mi-	co-	.	.
.	.	8g/J	.	8cc#\J	.	.	.	.	.	.	.	.	.	.	.	.	.
=4	=4	=4	=4	=4	=4	=4	=4	=4	=4	=4	=4	=4	=4	=4	=4	=4	=4
4D\	.	8f#/L	.	4.dd\	.	2D\	-num	2A\	-num	2f#\	-num	.	2dd\	-num	-gno-	2f#/	2dd\
.	.	8a/	.	.	.	.	.	.	.	.	.	.	.	.	.	.	.
4D\	.	8f#/	.	.	.	.	.	.	.	.	.	.	.	.	.	.	.
.	.	8a/J	.	(16cc#\LL	.	.	.	.	.	.	.	.	.	.	.	.	.
.	.	.	.	16dd\JJ)	.	.	.	.	.	.	.	.	.	.	.	.	.
4C#\	6 5	8g/L	.	8ff#\L	.	4C#\	in	4A\	in	4g\	in	.	4ee\	in	-wi-	2a/	2ee\
.	.	8a/	.	8ee\	.	.	.	.	.	.	.	.	.	.	.	.	.
4C#\	.	8g/	.	8dd\	.	4C#\	man-	4A\	man-	4g\	man-	.	4ee\	man-	-sti	.	.
.	.	8a/J	.	8ee\J	.	.	.	.	.	.	.	.	.	.	.	.	.
!	!	!LO:LB:g=original	!	!LO:LB:g=original	!	!LO:LB:g=original	!	!LO:LB:g=original	!	!LO:LB:g=original	!	!	!LO:LB:g=original	!	!	!	!
=5	=5	=5	=5	=5	=5	=5	=5	=5	=5	=5	=5	=5	=5	=5	=5	=5	=5
*	*	*Xtremolo	*	*	*	*	*	*	*	*	*	*	*	*	*	*	*
4D\	.	8f#/L	.	(4.ff#\	.	2D\	-da-	2A\	-da-	2f#\	-da-	.	2dd\	-da-	me	2dd\	2ff#\
.	.	8a/	.	.	.	.	.	.	.	.	.	.	.	.	.	.	.
4D\	.	8f#/	.	.	.	.	.	.	.	.	.	.	.	.	.	.	.
.	.	8a/J	.	8aa\)	.	.	.	.	.	.	.	.	.	.	.	.	.
!	!	!	!	!LO:TX:a:t=|	!	!	!	!	!	!	!	!	!	!	!	!	!
*	*	*tremolo	*	*	*	*	*	*	*	*	*	*	*	*	*	*	*
4F#\	6	8g/L	.	4dd\	.	2F#\	-tis	2d\	-tis	2a\	-tis	.	2dd\	-tis	tu	2f#/	2dd\
.	.	8a/	.	.	.	.	.	.	.	.	.	.	.	.	.	.	.
!	!	!	!	!LO:TX:a:t=|	!	!	!	!	!	!	!	!	!	!	!	!	!
4F#\	.	8g/	.	4dd\	.	.	.	.	.	.	.	.	.	.	.	.	.
.	.	8a/J	.	.	.	.	.	.	.	.	.	.	.	.	.	.	.
*	*	*Xtremolo	*	*	*	*	*	*	*	*	*	*	*	*	*	*	*
=6	=6	=6	=6	=6	=6	=6	=6	=6	=6	=6	=6	=6	=6	=6	=6	=6	=6
4G\	4 2	4a/	.	8dd\L	.	4G\	e-	4e\	e-	4a\	e-	.	4cc#\	e-	co-	4a/	4dd\
.	.	.	.	8cc#\	.	.	.	.	.	.	.	.	.	.	.	.	.
4F#\	6	4a/	.	8cc#\	.	4F#\	-ius	4d\	-jus	4a\	-jus	.	4dd\	-jus	-gno-	4dd\	4ff#\
.	.	.	.	8dd\J	.	.	.	.	.	.	.	.	.	.	.	.	.
4E\	6	8cc#\L	.	8ee\L	.	4E\	vo-	4c#\	vo-	4a\	vo-	.	4ee\	vo-	-gno-	4ee\	4gg\
.	.	8ee\	.	8gg\	.	.	.	.	.	.	.	.	.	.	.	.	.
4D\	.	8dd\	.	8ff#\	.	4D\	-let	4d\	-let	4a\	-let	.	4ff#\	-let	-vi-	4dd\	4ff#\
.	.	8ff#\J	.	8aa\J	.	.	.	.	.	.	.	.	.	.	.	.	.
!LO:LB:g=original	!	!	!	!	!	!	!	!	!	!	!	!	!	!	!	!LO:LB:g=original	!LO:LB:g=original
=7	=7	=7	=7	=7	=7	=7	=7	=7	=7	=7	=7	=7	=7	=7	=7	=7	=7
4A\	4	4.dd\	.	4.ff#\	.	2A\	ni-	2d\	ni-	2a\	ni-	.	2ff#\	ni-	-sti	2dd\	2ff#\
4AA/	.	.	.	.	.	.	.	.	.	.	.	.	.	.	.	.	.
.	.	(16cc#\LL	.	16ee\LL	.	.	.	.	.	.	.	.	.	.	.	.	.
.	.	16dd\JJ)	.	16ff#\JJ	.	.	.	.	.	.	.	.	.	.	.	.	.
4A\	3	8cc#\L	.	8ee\L	.	4AA/	-mis	4c#\	-mis	4a\	-mis	.	4ee\	-mis	.	4a/	4ee\
.	.	8dd\	.	8ff#\	.	.	.	.	.	.	.	.	.	.	.	.	.
4r	.	8ee\	.	8gg\	.	4r	.	4r	.	4r	.	.	4r	.	.	4r	4r
.	.	8cc#\J	.	8ee\J	.	.	.	.	.	.	.	.	.	.	.	.	.
=8	=8	=8	=8	=8	=8	=8	=8	=8	=8	=8	=8	=8	=8	=8	=8	=8	=8
4D\	.	8a\L	.	(4.ff#\	.	2D\	po-	2d\	po-	2a\	Po-	.	2ff#\	Po-	Ceſ-	1d/	1dd\
.	.	8ff#\	.	.	.	.	.	.	.	.	.	.	.	.	.	.	.
4D\	.	8a\	.	.	.	.	.	.	.	.	.	.	.	.	.	.	.
.	.	8ff#\J	.	8gg\)	.	.	.	.	.	.	.	.	.	.	.	.	.
*	*	*2\right	*	*	*	*	*	*	*	*	*	*	*	*	*	*	*
*	*	*tremolo	*	*	*	*	*	*	*	*	*	*	*	*	*	*	*
4D\	.	8a\L	.	8aa\L	.	4D\	-tens	4d\	-tens	4a\	-tens	.	4ff#\	-tens	-si-	.	.
.	.	8ff#\	.	8bb\	.	.	.	.	.	.	.	.	.	.	.	.	.
4D\	.	8a\	.	8ccc#\	.	4D\	in	4d\	in	4a\	in	.	4ff#\	in	-o-	.	.
.	.	8ff#\J	.	8ddd\J	.	.	.	.	.	.	.	.	.	.	.	.	.
=9	=9	=9	=9	=9	=9	=9	=9	=9	=9	=9	=9	=9	=9	=9	=9	=9	=9
4D\	6 4	8b\L	.	4bb\	.	1D\	ter-	1d\	ter-	1b\	ter-	.	1gg\	ter-	-nem	1d/	1dd\
.	.	8gg\	.	.	.	.	.	.	.	.	.	.	.	.	.	.	.
4D\	.	8b\	.	8bb\L	.	.	.	.	.	.	.	.	.	.	.	.	.
.	.	8gg\J	.	8aa\J	.	.	.	.	.	.	.	.	.	.	.	.	.
4D\	.	8b\L	.	8bb\L	.	.	.	.	.	.	.	.	.	.	.	.	.
.	.	8gg\	.	8ccc#\	.	.	.	.	.	.	.	.	.	.	.	.	.
4D\	.	8b\	.	8ddd\	.	.	.	.	.	.	.	.	.	.	.	.	.
.	.	8gg\J	.	8bb\J	.	.	.	.	.	.	.	.	.	.	.	.	.
!	!	!	!	!LO:LB:g=original	!	!	!	!	!	!	!	!	!	!	!	!	!
=10	=10	=10	=10	=10	=10	=10	=10	=10	=10	=10	=10	=10	=10	=10	=10	=10	=10
*	*	*Xtremolo	*	*	*	*	*	*	*	*	*	*	*	*	*	*	*
4D\	3	8a\L	.	4.aa\	.	2D\	-ra	2d\	-ra	2a\	-ra	.	2ff#\	-ra	me-	1d/	1dd\
.	.	8ff#\	.	.	.	.	.	.	.	.	.	.	.	.	.	.	.
4D\	.	8a\	.	.	.	.	.	.	.	.	.	.	.	.	.	.	.
.	.	8ff#\J	.	16ff#\LL	.	.	.	.	.	.	.	.	.	.	.	.	.
.	.	.	.	16gg\JJ	.	.	.	.	.	.	.	.	.	.	.	.	.
*	*	*tremolo	*	*	*	*	*	*	*	*	*	*	*	*	*	*	*
4D\	.	8a\L	.	8aa\L	.	4D\	e-	4d\	e-	4a\	e-	.	4ff#\	e-	.	.	.
.	.	8ff#\	.	8bb\	.	.	.	.	.	.	.	.	.	.	.	.	.
4D\	.	8a\	.	8ccc#\	.	4D\	-rit	4d\	-rit	4a\	-rit	.	4ff#\	-rit	-am	.	.
.	.	8ff#\J	.	8ddd\J	.	.	.	.	.	.	.	.	.	.	.	.	.
!	!	!LO:LB:g=original	!	!	!	!LO:LB:g=original	!	!LO:LB:g=original	!	!LO:LB:g=original	!	!	!LO:LB:g=original	!	!	!	!
=11	=11	=11	=11	=11	=11	=11	=11	=11	=11	=11	=11	=11	=11	=11	=11	=11	=11
4D\	6 4	8b\L	.	4bb\	.	2D\	Se-	2d\	Se-	2b\	Se-	.	2gg\	se-	et	1d/	1dd\
.	.	8gg\	.	.	.	.	.	.	.	.	.	.	.	.	.	.	.
4D\	.	8b\	.	8bb\L	.	.	.	.	.	.	.	.	.	.	.	.	.
.	.	8gg\J	.	8aa\J	.	.	.	.	.	.	.	.	.	.	.	.	.
4D\	.	8b\L	.	8bb\L	.	2D\	-men	2d\	-men	2b\	-men	.	2gg\	-men	Re-	.	.
.	.	8gg\	.	8ccc#\	.	.	.	.	.	.	.	.	.	.	.	.	.
4D\	.	8b\	.	8ddd\	.	.	.	.	.	.	.	.	.	.	.	.	.
.	.	8gg\J	.	8bb\J	.	.	.	.	.	.	.	.	.	.	.	.	.
*	*	*Xtremolo	*	*	*	*	*	*	*	*	*	*	*	*	*	*	*
=12	=12	=12	=12	=12	=12	=12	=12	=12	=12	=12	=12	=12	=12	=12	=12	=12	=12
4D\	.	8gg\L	.	8bb\L	.	4D\	e-	4d\	e-	4a\	e-	.	4ff#\	e-	-sur-	4d/	4dd\
.	.	8ff#\J	.	8aa\J	.	.	.	.	.	.	.	.	.	.	.	.	.
4D\	.	4ff#\	.	(4.aa\	.	4D\	-ius	4d\	-jus	4a\	-jus	.	4ff#\	-jus	-re-	4r	4r
4D#X\	6 4	4ff#\	.	.	.	4D\	ge-	4B\	ge-	4a\	ge-	.	4ff#\	ge-	-cti-	2r	2r
.	.	.	.	8ff#\L)	.	.	.	.	.	.	.	.	.	.	.	.	.
4D#\	.	4ff#\	.	8bb\	.	4D\	-ne-	4B\	-ne-	8b\L	-ne-	.	4ff#\	-ne-	-o-	.	.
.	.	.	.	8aa\J	.	.	.	.	.	8a\J	.	.	.	.	.	.	.
=13	=13	=13	=13	=13	=13	=13	=13	=13	=13	=13	=13	=13	=13	=13	=13	=13	=13
4E\	#	4b\	.	(8aa\L	.	4E\	-ra-	4B\	-ra-	4g#X\	-ra-	.	4ee\	-ra-	-nem	1r	1r
.	.	.	.	8gg#X\J)	.	.	.	.	.	.	.	.	.	.	.	.	.
4E\	.	4b\	.	(4.gg#\	.	4E\	-ti-	4B\	-ti-	4g#\	-ti-	.	4ee\	-ti-	/Re-	.	.
4C#/	6 5n	4ee\	.	.	.	4C#\	-o	4A\	-o	4gn\	-o	.	4ee\	-o	-sur-	.	.
.	.	.	.	8ee\L)	.	.	.	.	.	.	.	.	.	.	.	.	.
4C#/	.	4ee\	.	(8aa\	.	4C#\	rec-	4A\	rec-	8a\L	rec-	.	4ee\	recto-	-re-	.	.
.	.	.	.	8ggn\J)	.	.	.	.	.	8g\J	.	.	.	.	.	.	.
!LO:LB:g=original	!	!	!	!	!	!	!	!	!	!	!	!	!	!	!	!	!
=14	=14	=14	=14	=14	=14	=14	=14	=14	=14	=14	=14	=14	=14	=14	=14	=14	=14
4Dn\	.	4dd\	.	(8gg\L	.	2D\	-to-	2A\	-to-	2f#\	-to-	.	2dd\	-rum	-cti-	4r	4r
.	.	.	.	8ff#\J)	.	.	.	.	.	.	.	.	.	.	.	.	.
4D\	.	4dd\	.	(4.aa\	.	.	.	.	.	.	.	.	.	.	.	4dd\	4ff#\
4F#\	6	4a/	.	.	.	4F#\	-rum	4d\	-rum	4a\	-rum	.	4dd\	be-	-o-	4dd\	4ff#\
.	.	.	.	8ff#\L)	.	.	.	.	.	.	.	.	.	.	.	.	.
4F#\	.	4a/	.	(8ee\	.	4F#\	be-	4d\	be-	4a\	be-	.	4dd\	-ne-	-nem/	4dd\	4ff#\
.	.	.	.	8dd\J)	.	.	.	.	.	.	.	.	.	.	.	.	.
!	!	!	!	!LO:LB:g=original	!	!	!	!	!	!LO:LB:g=original	!	!	!	!	!	!	!
=15	=15	=15	=15	=15	=15	=15	=15	=15	=15	=15	=15	=15	=15	=15	=15	=15	=15
4G\	6	4.b/	.	4ee\	.	4G\	-ne-	4B\	-ne-	4g\	-ne-	.	4ee\	-di-	me-	2ee\	2gg\
4G\	.	.	.	8gg\L	.	4G\	-di-	4B\	-di-	4g\	-di-	.	4ee\	-ce-	.	.	.
.	.	8g/	.	8ee\J	.	.	.	.	.	.	.	.	.	.	.	.	.
!	!	!	!	!	!	!	!	!	!	!	!	!	!LO:LB:g=original	!	!	!	!
4A\	4	8g/L	.	8ee\L	.	4A\	-ce-	2A\	-ce-	4f#\	-ce-	.	4dd\	.	.	4dd\	4ff#\
.	.	8f#/	.	8dd\	.	.	.	.	.	.	.	.	.	.	.	.	.
4AA/	3	8f#/	.	8dd\	.	4AA/	.	.	.	4e\	.	.	4cc#\	.	.	4a/	4ee\
.	.	8e/J	.	8cc#\J	.	.	.	.	.	.	.	.	.	.	.	.	.
!	!	!	!	!	!	!LO:LB:g=original	!	!LO:LB:g=original	!	!	!	!	!	!	!	!	!
=16	=16	=16	=16	=16	=16	=16	=16	=16	=16	=16	=16	=16	=16	=16	=16	=16	=16
*2\right	*	*	*	*	*	*	*	*	*	*	*	*	*	*	*	*	*
2D\	.	2f#/	.	4dd\	.	2D\	-tur	2A\	-tur	2f#\	-tur	.	2dd\	-tur	-am	2f#/	2dd\
.	.	.	.	16ff#\LL	.	.	.	.	.	.	.	.	.	.	.	.	.
.	.	.	.	16ee\	.	.	.	.	.	.	.	.	.	.	.	.	.
.	.	.	.	16ff#\	.	.	.	.	.	.	.	.	.	.	.	.	.
.	.	.	.	16gg\JJ	.	.	.	.	.	.	.	.	.	.	.	.	.
4r	.	4r	.	8aa\L	.	2r	.	2r	.	2r	.	.	2r	.	.	2r	2r
.	.	.	.	8ff#\	.	.	.	.	.	.	.	.	.	.	.	.	.
!LO:TX:a:t=Solo	!	!	!	!	!	!	!	!	!	!	!	!	!	!	!	!	!
4D\	.	4a/	.	8dd\	.	.	.	.	.	.	.	.	.	.	.	.	.
.	.	.	.	8ff#\J	.	.	.	.	.	.	.	.	.	.	.	.	.
!	!	!	!	!	!	!	!	!	!	!	!	!	!	!	!	!LO:LB:g=original	!LO:LB:g=original
=17	=17	=17	=17	=17	=17	=17	=17	=17	=17	=17	=17	=17	=17	=17	=17	=17	=17
4G\	6	4.b/	.	8ff#\L	.	00r	.	00r	.	1r	.	.	00r	.	.	00r	00r
.	.	.	.	8ee\	.	.	.	.	.	.	.	.	.	.	.	.	.
4G\	.	.	.	8gg\	.	.	.	.	.	.	.	.	.	.	.	.	.
.	.	8g/	.	8ee\J	.	.	.	.	.	.	.	.	.	.	.	.	.
4A\	4	8g/L	.	8ee\L	.	.	.	.	.	.	.	.	.	.	.	.	.
.	.	8f#/	.	8dd\	.	.	.	.	.	.	.	.	.	.	.	.	.
4AA/	3	8f#/	.	8dd\	.	.	.	.	.	.	.	.	.	.	.	.	.
.	.	8e/J	.	8cc#\J	.	.	.	.	.	.	.	.	.	.	.	.	.
!	!	!LO:LB:g=original	!	!	!	!	!	!	!	!	!	!	!	!	!	!	!
=18	=18	=18	=18	=18	=18	=18	=18	=18	=18	=18	=18	=18	=18	=18	=18	=18	=18
!	!	!	!LO:DY:a	!	!LO:DY:a:rj	!	!	!	!	!LO:TX:a:rj:t=Solo	!	!	!	!	!	!	!
4D\	.	8f#/L	p	(4.dd\	p	.	.	.	.	4.f#\	Glo-	.	.	.	.	.	.
.	.	8a/	.	.	.	.	.	.	.	.	.	.	.	.	.	.	.
4D\	.	8f#/	.	.	.	.	.	.	.	.	.	.	.	.	.	.	.
.	.	8a/J	.	8ee\)	.	.	.	.	.	8g\	-ri-	.	.	.	.	.	.
*	*	*tremolo	*	*	*	*	*	*	*	*	*	*	*	*	*	*	*
!	!	!	!	!LO:TX:a:t=|	!	!	!	!	!	!	!	!	!	!	!	!	!
4D\	.	8f#/L	.	4ff#\	.	.	.	.	.	4a\	-a	.	.	.	.	.	.
.	.	8a/	.	.	.	.	.	.	.	.	.	.	.	.	.	.	.
!	!	!	!	!LO:TX:a:t=|	!	!	!	!	!	!	!	!	!	!	!	!	!
4D\	.	8f#/	.	4ff#\	.	.	.	.	.	4a\	et	.	.	.	.	.	.
.	.	8a/J	.	.	.	.	.	.	.	.	.	.	.	.	.	.	.
=19	=19	=19	=19	=19	=19	=19	=19	=19	=19	=19	=19	=19	=19	=19	=19	=19	=19
4G\	6	8g/L	.	4.gg\	.	.	.	.	.	4.b\	Di-	.	.	.	.	.	.
.	.	8b/	.	.	.	.	.	.	.	.	.	.	.	.	.	.	.
4G\	.	8g/	.	.	.	.	.	.	.	.	.	.	.	.	.	.	.
.	.	8b/J	.	8ee\	.	.	.	.	.	8g\	.	.	.	.	.	.	.
.	.	.	.	16qqdd/	.	.	.	.	.	.	.	.	.	.	.	.	.
4A\	.	8e/L	.	4cc#\	.	.	.	.	.	4e\	-vi-	.	.	.	.	.	.
.	.	8g/	.	.	.	.	.	.	.	.	.	.	.	.	.	.	.
4A\	.	8e/	.	8b\L	.	.	.	.	.	8d\L	-ti-	.	.	.	.	.	.
.	.	8g/J	.	8cc#\J	.	.	.	.	.	8e\J	.	.	.	.	.	.	.
!	!	!	!	!LO:LB:g=original	!	!	!	!	!	!LO:LB:g=original	!	!	!	!	!	!	!
=20	=20	=20	=20	=20	=20	=20	=20	=20	=20	=20	=20	=20	=20	=20	=20	=20	=20
4D\	.	8f#/L	.	8dd\L	.	.	.	.	.	8f#\L	-ae	.	.	.	.	.	.
.	.	8a/	.	8cc#\	.	.	.	.	.	8e\J	.	.	.	.	.	.	.
4D\	.	8f#/	.	8dd\	.	.	.	.	.	8f#\L	in	.	.	.	.	.	.
.	.	8a/J	.	8ee\J	.	.	.	.	.	8g\J	.	.	.	.	.	.	.
4D\	.	8f#/L	.	4ff#\	.	.	.	.	.	4a\	Do-	.	.	.	.	.	.
.	.	8a/	.	.	.	.	.	.	.	.	.	.	.	.	.	.	.
4D\	.	8f#/	.	4ff#\	.	.	.	.	.	4a\	-mo	.	.	.	.	.	.
.	.	8a/J	.	.	.	.	.	.	.	.	.	.	.	.	.	.	.
!LO:LB:g=original	!	!	!	!	!	!	!	!	!	!	!	!	!	!	!	!	!
=21	=21	=21	=21	=21	=21	=21	=21	=21	=21	=21	=21	=21	=21	=21	=21	=21	=21
4G\	6	8g/L	.	(4.gg\	.	00r	.	00r	.	4.b\	e-	.	00r	.	.	00r	00r
.	.	8b/	.	.	.	.	.	.	.	.	.	.	.	.	.	.	.
4G\	.	8g/	.	.	.	.	.	.	.	.	.	.	.	.	.	.	.
.	.	8b/J	.	8ee\)	.	.	.	.	.	8g\	.	.	.	.	.	.	.
.	.	.	.	8qqdd/	.	.	.	.	.	.	.	.	.	.	.	.	.
4A\	.	8e/L	.	4cc#\	.	.	.	.	.	4e\	.	.	.	.	.	.	.
.	.	8g/	.	.	.	.	.	.	.	.	.	.	.	.	.	.	.
4A\	.	8e/	.	8b\L	.	.	.	.	.	8d\L	.	.	.	.	.	.	.
.	.	8g/J	.	8cc#\J	.	.	.	.	.	8e\J	.	.	.	.	.	.	.
*	*	*Xtremolo	*	*	*	*	*	*	*	*	*	*	*	*	*	*	*
=22	=22	=22	=22	=22	=22	=22	=22	=22	=22	=22	=22	=22	=22	=22	=22	=22	=22
*	*	*	*	*2\right	*	*	*	*	*	*	*	*	*	*	*	*	*
4d\	.	4f#/	.	2dd\	.	.	.	.	.	4f#\	-jus	.	.	.	.	.	.
4D/	.	4f#/	.	.	.	.	.	.	.	8g\L	et	.	.	.	.	.	.
.	.	.	.	.	.	.	.	.	.	8a\J	.	.	.	.	.	.	.
4d\	6	4r	.	4b/	.	.	.	.	.	4b\	jus-	.	.	.	.	.	.
4d#X\	5	4f#/	.	4a/	.	.	.	.	.	4a\	-ti-	.	.	.	.	.	.
=23	=23	=23	=23	=23	=23	=23	=23	=23	=23	=23	=23	=23	=23	=23	=23	=23	=23
4e\	#	8B/L	.	(4.g#X/	.	.	.	.	.	4.g#X\	-ti-	.	.	.	.	.	.
.	.	8e/	.	.	.	.	.	.	.	.	.	.	.	.	.	.	.
4dn\	.	8B/	.	.	.	.	.	.	.	.	.	.	.	.	.	.	.
.	.	8e/J	.	16f#/LL	.	.	.	.	.	16f#\LL	.	.	.	.	.	.	.
.	.	.	.	16g#/JJ)	.	.	.	.	.	16g#\JJ	.	.	.	.	.	.	.
!	!	!	!	!	!	!	!	!	!	!LO:LB:g=original	!	!	!	!	!	!	!
!	!	!	!	!LO:TX:b:t=|	!	!	!	!	!	!	!	!	!	!	!	!	!
4c#\	5	8c#/L	.	4a/	.	.	.	.	.	4a\	.	.	.	.	.	.	.
.	.	8e/	.	.	.	.	.	.	.	.	.	.	.	.	.	.	.
!	!	!	!	!LO:TX:b:t=|	!	!	!	!	!	!	!	!	!	!	!	!	!
4B\	.	8c#/	.	4a/	.	.	.	.	.	4a\	-a	.	.	.	.	.	.
.	.	8e/J	.	.	.	.	.	.	.	.	.	.	.	.	.	.	.
!	!	!LO:LB:g=original	!	!	!	!	!	!	!	!	!	!	!	!	!	!	!
=24	=24	=24	=24	=24	=24	=24	=24	=24	=24	=24	=24	=24	=24	=24	=24	=24	=24
4.G#X\	6 5	8d/L	.	4.b\	.	.	.	.	.	2b\	e-	.	.	.	.	.	.
.	.	8e/	.	.	.	.	.	.	.	.	.	.	.	.	.	.	.
.	.	8d/	.	.	.	.	.	.	.	.	.	.	.	.	.	.	.
16F#\LL	_ _	8e/J	.	(16a\LL	.	.	.	.	.	.	.	.	.	.	.	.	.
16G#\JJ	.	.	.	16b\JJ)	.	.	.	.	.	.	.	.	.	.	.	.	.
4A\	x	8c#/L	.	8dd\L	.	.	.	.	.	8dd\L	.	.	.	.	.	.	.
.	.	8e/	.	8cc#\	.	.	.	.	.	8cc#\J	.	.	.	.	.	.	.
4c#\	6	8c#/	.	8b\	.	.	.	.	.	8b\L	-jus	.	.	.	.	.	.
.	.	8e/J	.	8a\J	.	.	.	.	.	8a\J	.	.	.	.	.	.	.
=25	=25	=25	=25	=25	=25	=25	=25	=25	=25	=25	=25	=25	=25	=25	=25	=25	=25
4e\	#	8B/L	.	(4.g#X/	.	00r	.	00r	.	4.g#X\	ma-	.	0r	.	.	00r	00r
.	.	8e/	.	.	.	.	.	.	.	.	.	.	.	.	.	.	.
4d\	.	8B/	.	.	.	.	.	.	.	.	.	.	.	.	.	.	.
.	.	8e/J	.	16f#/LL)	.	.	.	.	.	16f#\LL	.	.	.	.	.	.	.
.	.	.	.	16g#/JJ	.	.	.	.	.	16g#\JJ	.	.	.	.	.	.	.
4c#\	6	8c#/L	.	4a/	.	.	.	.	.	4a\	-net	.	.	.	.	.	.
.	.	8e/	.	.	.	.	.	.	.	.	.	.	.	.	.	.	.
4A\	.	8c#/	.	4a/	.	.	.	.	.	4a\	in	.	.	.	.	.	.
.	.	8e/J	.	.	.	.	.	.	.	.	.	.	.	.	.	.	.
!	!	!	!	!LO:LB:g=original	!	!	!	!	!	!	!	!	!	!	!	!	!
=26	=26	=26	=26	=26	=26	=26	=26	=26	=26	=26	=26	=26	=26	=26	=26	=26	=26
4d\	6	8d/L	.	8b\L	.	.	.	.	.	8b\L	Se-	.	.	.	.	.	.
.	.	8e/	.	8cc#\	.	.	.	.	.	8cc#\J	-cu-	.	.	.	.	.	.
4d\	.	8f#/	.	8dd\	.	.	.	.	.	8dd\	.	.	.	.	.	.	.
.	.	8d/J	.	8b\J	.	.	.	.	.	8b\	-lum	.	.	.	.	.	.
4e\	4	4c#/	.	4a/	.	.	.	.	.	4a\	Se-	.	.	.	.	.	.
4E\	#	4B/	.	4g#X/	.	.	.	.	.	4g#X\	-cu-	.	.	.	.	.	.
!	!	!	!	!	!	!	!	!	!	!LO:LB:g=original	!	!	!	!	!	!	!
=27	=27	=27	=27	=27	=27	=27	=27	=27	=27	=27	=27	=27	=27	=27	=27	=27	=27
!	!	!	!	!	!	!	!	!	!	!	!	!	!LO:TX:a:t=Solo	!	!	!	!
4A\	.	4c#/	.	2a/	.	.	.	.	.	4a\	-li	.	2a\	Ex-	.	.	.
4A\	.	4c#/	.	.	.	.	.	.	.	4r	.	.	.	.	.	.	.
4A\	.	4c#/	.	8cc#\L	.	.	.	.	.	2r	.	.	8cc#\L	-or-	.	.	.
.	.	.	.	8b\	.	.	.	.	.	.	.	.	8b\J	.	.	.	.
4A\	.	4c#/	.	8cc#\	.	.	.	.	.	.	.	.	8cc#\L	-tum	.	.	.
.	.	.	.	8dd\J	.	.	.	.	.	.	.	.	8dd\J	.	.	.	.
!LO:LB:g=original	!	!	!	!	!	!	!	!	!	!	!	!	!	!	!	!	!
=28	=28	=28	=28	=28	=28	=28	=28	=28	=28	=28	=28	=28	=28	=28	=28	=28	=28
4G\	6 5	4B/	.	2ee\	.	.	.	.	.	00r	.	.	2ee\	est	.	.	.
4G\	_ _	4B/	.	.	.	.	.	.	.	.	.	.	.	.	.	.	.
4G\	.	4B/	.	8ee\L	.	.	.	.	.	.	.	.	8ee\L	in	.	.	.
.	.	.	.	8ff#\	.	.	.	.	.	.	.	.	8ff#\J	.	.	.	.
4G\	x	4B/	.	8ee\	.	.	.	.	.	.	.	.	8ee\L	te-	.	.	.
.	.	.	.	8dd\J	.	.	.	.	.	.	.	.	8dd\J	.	.	.	.
=29	=29	=29	=29	=29	=29	=29	=29	=29	=29	=29	=29	=29	=29	=29	=29	=29	=29
4A\	.	4c#/	.	4.cc#\	.	00r	.	00r	.	.	.	.	4.cc#\	-ne-	.	00r	00r
4A\	.	4c#/	.	.	.	.	.	.	.	.	.	.	.	.	.	.	.
.	.	.	.	16dd\LL	.	.	.	.	.	.	.	.	16dd\LL	-bris	.	.	.
.	.	.	.	16ee\JJ	.	.	.	.	.	.	.	.	16ee\JJ	.	.	.	.
!	!	!	!	!	!	!	!	!	!	!	!	!	!LO:LB:g=original	!	!	!	!
4G#X\	6 5	4e/	.	4dd\	.	.	.	.	.	.	.	.	4dd\	lu-	.	.	.
4A\	.	4e/	.	4cc#\	.	.	.	.	.	.	.	.	4cc#\	-men	.	.	.
!	!	!LO:LB:g=original	!	!	!	!	!	!	!	!	!	!	!	!	!	!	!
=30	=30	=30	=30	=30	=30	=30	=30	=30	=30	=30	=30	=30	=30	=30	=30	=30	=30
4E\	4	4a/	.	4cc#\	.	.	.	.	.	.	.	.	4cc#\	rec-	.	.	.
4EE/	#	4g#X/	.	4b\	.	.	.	.	.	.	.	.	4b\	-tis	.	.	.
4r	.	4r	.	[2ee\	.	.	.	.	.	.	.	.	2ee\	mi-	.	.	.
4G#X\	6	4e/	.	.	.	.	.	.	.	.	.	.	.	.	.	.	.
=31	=31	=31	=31	=31	=31	=31	=31	=31	=31	=31	=31	=31	=31	=31	=31	=31	=31
2A\	6 5	2.f#/	.	4ee\]	.	.	.	.	.	.	.	.	4ee\	-se-	.	.	.
.	.	.	.	8dd\L	.	.	.	.	.	.	.	.	8dd\L	-ri	.	.	.
.	.	.	.	8cc#\J	.	.	.	.	.	.	.	.	8cc#\J	.	.	.	.
2B\	.	.	.	[2dd\	.	.	.	.	.	.	.	.	4dd\	cors	.	.	.
.	.	8g/L	.	.	.	.	.	.	.	.	.	.	4dd\	et	.	.	.
.	.	8f#/J	.	.	.	.	.	.	.	.	.	.	.	.	.	.	.
=32	=32	=32	=32	=32	=32	=32	=32	=32	=32	=32	=32	=32	=32	=32	=32	=32	=32
2G#X\	6 5	2.e/	.	4dd\]	.	.	.	.	.	0r	.	.	4dd\	mi-	.	.	.
.	.	.	.	8cc#\L	.	.	.	.	.	.	.	.	8cc#\L	-se-	.	.	.
.	.	.	.	8b\J	.	.	.	.	.	.	.	.	8b\J	.	.	.	.
!	!	!	!	!LO:LB:g=original	!	!	!	!	!	!	!	!	!	!	!	!	!
2A\	.	.	.	[2cc#\	.	.	.	.	.	.	.	.	2cc#\	-ra-	.	.	.
.	.	8f#/L	.	.	.	.	.	.	.	.	.	.	.	.	.	.	.
.	.	8e/J	.	.	.	.	.	.	.	.	.	.	.	.	.	.	.
=33	=33	=33	=33	=33	=33	=33	=33	=33	=33	=33	=33	=33	=33	=33	=33	=33	=33
2D\	6	4d/	.	8cc#\L]	.	0r	.	0r	.	.	.	.	8cc#\L	-tor	.	00r	00r
.	.	.	.	8b\	.	.	.	.	.	.	.	.	8b\J	.	.	.	.
.	.	8f#/L	.	8dd\	.	.	.	.	.	.	.	.	8dd\L	et	.	.	.
.	.	8d/J	.	8b\J	.	.	.	.	.	.	.	.	8b\J	.	.	.	.
!	!	!	!	!	!	!	!	!	!	!	!	!	!LO:LB:g=original	!	!	!	!
4E\	4	4c#/	.	4a/	.	.	.	.	.	.	.	.	4a\	Jus-	.	.	.
4EE/	#	4B/	.	4g#X/	.	.	.	.	.	.	.	.	4g#X\	.	.	.	.
=34	=34	=34	=34	=34	=34	=34	=34	=34	=34	=34	=34	=34	=34	=34	=34	=34	=34
!	!	!	!	!	!LO:DY:a:t=f&colon;	!	!	!	!	!	!	!	!	!	!	!	!
4AA/	.	4c#/	.	4a/	f	.	.	.	.	1r	.	.	4a\	-tus	.	.	.
!	!	!	!	!	!	!	!	!	!	!	!	!	!LO:TX:a:t=|	!	!	!	!
4r	.	4r	.	4cc#\	.	.	.	.	.	.	.	.	4cc#\	Ju-	.	.	.
!	!	!	!	!	!	!	!	!	!	!	!	!	!LO:TX:a:t=|	!	!	!	!
2r	.	2r	.	4ff#\	.	.	.	.	.	.	.	.	4ff#\	-cun-	.	.	.
!	!	!	!	!	!	!	!	!	!	!	!	!	!LO:TX:a:t=|	!	!	!	!
.	.	.	.	4ee\	.	.	.	.	.	.	.	.	4ee\	-dus	.	.	.
!LO:LB:g=original	!	!	!	!	!	!	!	!	!	!	!	!	!	!	!	!	!
=35	=35	=35	=35	=35	=35	=35	=35	=35	=35	=35	=35	=35	=35	=35	=35	=35	=35
*	*	*^	*	*	*	*	*	*	*	*	*	*	*	*	*	*	*
!	!	!	!	!LO:DY:a	!	!	!	!	!	!	!	!	!	!	!	!	!	!
4r	.	4r	4ryy	f	1dd#X\	.	4r	.	4r	.	4r	.	.	1dd#X\	ho-	.	.	.
!LO:TX:a:rj:t=Tutti	!	!	!	!	!	!	!	!	!	!	!	!	!	!	!	!	!	!
4A\	4 2#	4b/	4f#\	.	.	.	4A\	Ju-	4B\	Ju-	4f#\	Ju-	.	.	.	.	.	.
4B\	.	4b/	4f#\	.	.	.	4B\	-cun-	4B\	-cun-	4f#\	-cun-	.	.	.	.	.	.
4A\	.	4b/	4f#\	.	.	.	4A\	-dus	4B\	-dus	4f#\	-dus	.	.	.	.	.	.
=36	=36	=36	=36	=36	=36	=36	=36	=36	=36	=36	=36	=36	=36	=36	=36	=36	=36	=36
2Gn\	6	2b/	2gn\	.	4ee\	.	4Gn\	ho-	4B\	ho-	4gn\	ho-	.	4ee\	-mo	.	.	.
!	!	!	!	!	!	!	!	!	!	!	!	!	!	!LO:TX:a:t=|	!	!	!	!
.	.	.	.	.	4b\	.	4G\	-mo	4B\	-mo	4g\	-mo	.	4b\	qui	.	.	.
!	!	!	!	!	!	!	!	!	!	!	!	!	!	!LO:TX:a:t=|	!	!	!	!
2r	.	2r	2ryy	.	4ee\	.	2r	.	4r	.	2r	.	.	4ee\	mi-	.	.	.
!	!	!	!	!	!	!	!	!	!	!	!	!	!	!LO:TX:a:t=|	!	!	!	!
.	.	.	.	.	4ddn\	.	.	.	4r	.	.	.	.	4ddn\	-ſe-	.	.	.
=37	=37	=37	=37	=37	=37	=37	=37	=37	=37	=37	=37	=37	=37	=37	=37	=37	=37	=37
!	!	!	!	!	!	!	!	!	!	!	!	!	!	!LO:TX:a:t=|	!	!	!	!
4r	.	4r	4ryy	.	1cc#\	.	4r	.	4r	.	4r	.	.	1cc#\	-re-	.	0r	0r
4G\	4 2	4a/	4e\	.	.	.	4G\	qui	4A\	qui	4e\	qui	.	.	.	.	.	.
4A\	.	4a/	4e\	.	.	.	4A\	mi-	4A\	mi-	4e\	mi-	.	.	.	.	.	.
4G\	.	4a/	4e\	.	.	.	4G\	-se-	4A\	-ſe-	4e\	-ſe-	.	.	.	.	.	.
!	!	!	!LO:LB:g=original	!	!	!	!	!	!LO:LB:g=original	!	!	!	!	!	!	!	!	!
=38	=38	=38	=38	=38	=38	=38	=38	=38	=38	=38	=38	=38	=38	=38	=38	=38	=38	=38
2F#\	6	2a/	2f#\	.	4dd\	.	4F#\	-re-	4A\	-re-	4f#\	-re-	.	4dd\	-tur	.	.	.
!	!	!	!	!	!	!	!	!	!	!	!	!	!	!LO:TX:a:t=|	!	!	!	!
.	.	.	.	.	4a\	.	4F#\	-tur	4A\	-tur	4f#\	-tur	.	4a\	et	.	.	.
!	!	!	!	!	!	!	!	!	!	!	!	!	!	!LO:TX:a:t=|	!	!	!	!
4r	.	4r	2ryy	.	4dd\	.	4r	.	4r	.	4r	.	.	4dd\	Co-	.	.	.
!	!	!	!	!	!	!	!LO:LB:g=original	!	!	!	!	!	!	!	!	!	!	!
!	!	!	!	!	!	!	!	!	!	!	!	!	!	!LO:TX:a:t=|	!	!	!	!
4F#\	6 5n	4a/	.	.	4ccn\	.	4F#\	et	4d\	et	4a\	et	.	4ccn\	-mo-	.	.	.
*	*	*v	*v	*	*	*	*	*	*	*	*	*	*	*	*	*	*	*
!	!	!	!	!	!	!	!	!	!	!LO:LB:g=original	!	!	!LO:LB:g=original	!	!	!	!
=39	=39	=39	=39	=39	=39	=39	=39	=39	=39	=39	=39	=39	=39	=39	=39	=39	=39
4G\	.	4.g/	.	4.b\	.	4G\	Com-	4G/	Com-	4g\	co-	.	2b\	-dat	.	1r	1r
4G\	.	.	.	.	.	4G\	-mo-	4G/	-mo	4g\	-mo-	.	.	.	.	.	.
.	.	16a/LL	.	8dd\	.	.	.	.	.	.	.	.	.	.	.	.	.
.	.	16b/JJ	.	.	.	.	.	.	.	.	.	.	.	.	.	.	.
4E\	6\ 3	4g/	.	8cc#X\L	.	4E\	-dat	4A\	dat	4g\	-da-	.	2cc#X\	diſ-	.	.	.
.	.	.	.	8a\	.	.	.	.	.	.	.	.	.	.	.	.	.
4E\	.	4g/	.	8b\	.	4E\	diſ-	4A\	diſ-	4g\	-dis	.	.	.	.	.	.
.	.	.	.	8cc#\J	.	.	.	.	.	.	.	.	.	.	.	.	.
!	!	!	!	!LO:LB:g=original	!	!	!	!	!	!	!	!	!	!	!	!	!
=40	=40	=40	=40	=40	=40	=40	=40	=40	=40	=40	=40	=40	=40	=40	=40	=40	=40
4D\	.	8f#/L	.	8dd\L	.	2D\	-po-	2A\	-po-	2f#\	po-	.	2dd\	-po-	.	2r	2r
.	.	8e/	.	8cc#\	.	.	.	.	.	.	.	.	.	.	.	.	.
4D\	.	8f#/	.	8dd\	.	.	.	.	.	.	.	.	.	.	.	.	.
.	.	8g/J	.	8ee\J	.	.	.	.	.	.	.	.	.	.	.	.	.
4F#\	6	4a/	.	4dd\	.	4F#\	-net	4d\	-net	4a\	-net	.	4dd\	-net	.	4r	4r
4F#\	.	4a/	.	4cc#\	.	4F#\	ser-	4d\	ser-	4a\	ser-	.	4dd\	ser-	.	4dd\	4ff#\
=41	=41	=41	=41	=41	=41	=41	=41	=41	=41	=41	=41	=41	=41	=41	=41	=41	=41
4G\	6	(4.b/	.	8ee\L	.	4G\	-mo-	4B\	-mo-	4g\	-mo-	.	4ee\	-mo-	.	2ee\	2gg\
.	.	.	.	8ff#\	.	.	.	.	.	.	.	.	.	.	.	.	.
4G\	.	.	.	8gg\	.	4G\	-nes	4B\	-nes	4g\	-nes	.	4ee\	-nes	.	.	.
.	.	8g/)	.	8ee\J	.	.	.	.	.	.	.	.	.	.	.	.	.
!	!	!LO:TX:b:t=|	!	!	!	!	!	!	!	!	!	!	!	!	!	!	!
4A\	#	4e/	.	8dd\L	.	2A\	su-	2A\	su-	2e\	su-	.	2cc#\	su-	.	2a/	2ee\
.	.	.	.	8cc#\	.	.	.	.	.	.	.	.	.	.	.	.	.
!	!	!LO:TX:b:t=|	!	!	!	!	!	!	!	!	!	!	!	!	!	!	!
4A\	.	4e/	.	8b\	.	.	.	.	.	.	.	.	.	.	.	.	.
.	.	.	.	8cc#\J	.	.	.	.	.	.	.	.	.	.	.	.	.
=42	=42	=42	=42	=42	=42	=42	=42	=42	=42	=42	=42	=42	=42	=42	=42	=42	=42
4D\	.	4f#/	.	8dd\L	.	2D\	-os	2A\	-os	2f#\	-os	.	2dd\	-os	.	2f#/	2dd\
.	.	.	.	8cc#\	.	.	.	.	.	.	.	.	.	.	.	.	.
4D\	.	4f#/	.	8dd\	.	.	.	.	.	.	.	.	.	.	.	.	.
.	.	.	.	8ff#\J	.	.	.	.	.	.	.	.	.	.	.	.	.
!	!	!	!	!	!	!	!	!LO:LB:g=original	!	!	!	!	!	!	!	!	!
4D\	.	4f#/	.	8aa\L	.	4D\	in	4A\	in	4f#\	in	.	4dd\	in	.	2r	2r
.	.	.	.	8ff#\	.	.	.	.	.	.	.	.	.	.	.	.	.
4F#\	6 5n	4a/	.	8dd\	.	4F#\	Ju-	4d\	ju-	4a\	Ju-	.	4ccn\	Ju-	.	.	.
.	.	.	.	8ccn\J	.	.	.	.	.	.	.	.	.	.	.	.	.
!LO:LB:g=original	!	!	!	!	!	!LO:LB:g=original	!	!	!	!	!	!	!	!	!	!	!
=43	=43	=43	=43	=43	=43	=43	=43	=43	=43	=43	=43	=43	=43	=43	=43	=43	=43
4G\	.	4.g/	.	4.b\	.	2G\	-di-	2G/	-di-	2g\	-di-	.	2b\	-di-	.	1r	1r
4G\	.	.	.	.	.	.	.	.	.	.	.	.	.	.	.	.	.
.	.	16a/LL	.	8dd\	.	.	.	.	.	.	.	.	.	.	.	.	.
.	.	16b/JJ	.	.	.	.	.	.	.	.	.	.	.	.	.	.	.
4E\	6\ 3	4g/	.	8cc#X\L	.	2E\	-ci-	2A/	-ci-	2g\	-ci-	.	2cc#X\	-ci-	.	.	.
.	.	.	.	8a\	.	.	.	.	.	.	.	.	.	.	.	.	.
4E\	.	4g/	.	8b\	.	.	.	.	.	.	.	.	.	.	.	.	.
.	.	.	.	8cc#\J	.	.	.	.	.	.	.	.	.	.	.	.	.
!	!	!LO:LB:g=original	!	!	!	!	!	!	!	!LO:LB:g=original	!	!	!LO:LB:g=original	!	!	!	!
=44	=44	=44	=44	=44	=44	=44	=44	=44	=44	=44	=44	=44	=44	=44	=44	=44	=44
4D\	.	8f#/L	.	8dd\L	.	2D\	-o	2A\	-o	2f#\	-o	.	2dd\	-o	.	2ee\	2r
.	.	8e/	.	8cc#\	.	.	.	.	.	.	.	.	.	.	.	.	.
4D\	.	8f#/	.	8dd\	.	.	.	.	.	.	.	.	.	.	.	.	.
.	.	8g/J	.	8ee\J	.	.	.	.	.	.	.	.	.	.	.	.	.
4F#\	6	4a/	.	4dd\	.	4F#\	qui-	4d\	qui-	4a\	qui-	.	4dd\	qui-	.	2a/	4r
4F#\	.	4a/	.	4dd\	.	4F#\	-a	4d\	-a	4a\	-a	.	4dd\	-a	.	.	4ff#\
!	!	!	!	!LO:LB:g=original	!	!	!	!	!	!	!	!	!	!	!	!	!
=45	=45	=45	=45	=45	=45	=45	=45	=45	=45	=45	=45	=45	=45	=45	=45	=45	=45
4G\	6	(4.b/	.	8ee\L	.	4G\	in	4B\	in	4g\	in	.	4ee\	in	.	2f#/	2gg\
.	.	.	.	8ff#\	.	.	.	.	.	.	.	.	.	.	.	.	.
4G\	.	.	.	8gg\	.	4G\	ae-	4B\	e-	4g\	e-	.	4ee\	ae-	.	.	.
.	.	8g/)	.	8ee\J	.	.	.	.	.	.	.	.	.	.	.	.	.
!	!	!LO:TX:b:t=|	!	!	!	!	!	!	!	!	!	!	!	!	!	!	!
4A\	3	4e/	.	8dd\L	.	2A\	-ter-	2A\	-ter-	2e\	-ter-	.	2cc#\	-ter-	.	2a/	2ee\
.	.	.	.	8cc#\	.	.	.	.	.	.	.	.	.	.	.	.	.
!	!	!LO:TX:b:t=|	!	!	!	!	!	!	!	!	!	!	!	!	!	!	!
4A\	.	4e/	.	8b\	.	.	.	.	.	.	.	.	.	.	.	.	.
.	.	.	.	8cc#\J	.	.	.	.	.	.	.	.	.	.	.	.	.
=46	=46	=46	=46	=46	=46	=46	=46	=46	=46	=46	=46	=46	=46	=46	=46	=46	=46
*	*	*^	*	*	*	*	*	*	*	*	*	*	*	*	*	*	*
4D\	.	4f#/	4ryy	.	8dd\L	.	2D/	-num	2A\	-num	2f#\	-num	.	2dd\	-num	.	2dd\	2dd\
.	.	.	.	.	8ff#\	.	.	.	.	.	.	.	.	.	.	.	.	.
4D\	.	4a/	4f#\	.	8aa\	.	.	.	.	.	.	.	.	.	.	.	.	.
.	.	.	.	.	8ff#\J	.	.	.	.	.	.	.	.	.	.	.	.	.
4C#\	6 5	4a/	4e\	.	8ee\L	.	2C#/	non	2A\	non	2g\	non	.	2ee\	non	.	2dd\	2ee\
.	.	.	.	.	8gg\	.	.	.	.	.	.	.	.	.	.	.	.	.
4C#\	.	4a/	4e\	.	8aa\	.	.	.	.	.	.	.	.	.	.	.	.	.
.	.	.	.	.	8gg\J	.	.	.	.	.	.	.	.	.	.	.	.	.
!	!	!	!	!	!	!	!	!	!LO:LB:g=original	!	!	!	!	!	!	!	!	!
=47	=47	=47	=47	=47	=47	=47	=47	=47	=47	=47	=47	=47	=47	=47	=47	=47	=47	=47
4D\	.	4a/	4f#\	.	8ff#\L	.	2D\	Com-	2A\	Com-	2f#\	Com-	.	2dd\	Com-	.	2dd\	2ff#\
.	.	.	.	.	8dd\	.	.	.	.	.	.	.	.	.	.	.	.	.
4D\	.	4a/	4f#\	.	8ff#\	.	.	.	.	.	.	.	.	.	.	.	.	.
.	.	.	.	.	8aa\J	.	.	.	.	.	.	.	.	.	.	.	.	.
4B\	.	4f#/	2ryy	.	8gg\L	.	2B\	-mo	2B\	-mo	2f#\	-mo	.	2dd\	-mo-	.	2a/	2ff#\
.	.	.	.	.	8ff#\	.	.	.	.	.	.	.	.	.	.	.	.	.
4B\	.	4f#/	.	.	8ee\	.	.	.	.	.	.	.	.	.	.	.	.	.
.	.	.	.	.	8dd\J	.	.	.	.	.	.	.	.	.	.	.	.	.
*	*	*v	*v	*	*	*	*	*	*	*	*	*	*	*	*	*	*	*
!	!	!	!	!	!	!LO:LB:g=original	!	!	!	!	!	!	!	!	!	!LO:LB:g=original	!LO:LB:g=original
=48	=48	=48	=48	=48	=48	=48	=48	=48	=48	=48	=48	=48	=48	=48	=48	=48	=48
4G\	6 5	4e/	.	8cc#\L	.	2G\	ve-	2B\	ve-	2e\	ve-	.	2dd\	-ve-	.	2f#/	1ee\
.	.	.	.	8dd\	.	.	.	.	.	.	.	.	.	.	.	.	.
4G\	.	4e/	.	8ee\	.	.	.	.	.	.	.	.	.	.	.	.	.
.	.	.	.	8dd\J	.	.	.	.	.	.	.	.	.	.	.	.	.
4A\	3	4e/	.	8cc#\L	.	2A\	-bi-	2A\	-bi-	2e\	-bi-	.	2cc#\	-bi-	.	2r	.
.	.	.	.	8a\	.	.	.	.	.	.	.	.	.	.	.	.	.
4A\	.	4e/	.	8b\	.	.	.	.	.	.	.	.	.	.	.	.	.
.	.	.	.	8cc#\J	.	.	.	.	.	.	.	.	.	.	.	.	.
!	!	!	!	!	!	!	!	!	!	!	!	!	!LO:LB:g=original	!	!	!	!
=49	=49	=49	=49	=49	=49	=49	=49	=49	=49	=49	=49	=49	=49	=49	=49	=49	=49
!LO:TX:a:t=Solo	!	!	!	!	!	!	!	!	!	!	!	!	!	!	!	!	!
2D\	.	2f#/	.	4dd\	.	2D\	-tur	2A\	-tur	2f#\	-tur	.	2dd\	-tur	.	1r	2dd\
.	.	.	.	16ff#\LL	.	.	.	.	.	.	.	.	.	.	.	.	.
.	.	.	.	16ee\	.	.	.	.	.	.	.	.	.	.	.	.	.
.	.	.	.	16ff#\	.	.	.	.	.	.	.	.	.	.	.	.	.
.	.	.	.	16gg\JJ	.	.	.	.	.	.	.	.	.	.	.	.	.
4r	.	4r	.	8aa\L	.	2r	.	2r	.	2r	.	.	2r	.	.	.	2r
.	.	.	.	8ff#\J	.	.	.	.	.	.	.	.	.	.	.	.	.
!	!	!	!	!LO:LB:g=original	!	!	!	!	!	!	!	!	!	!	!	!	!
4D\	.	4a/	.	8dd\L	.	.	.	.	.	.	.	.	.	.	.	.	.
.	.	.	.	8ff#\J	.	.	.	.	.	.	.	.	.	.	.	.	.
!LO:LB:g=original	!	!LO:LB:g=original	!	!	!	!	!	!	!	!LO:LB:g=original	!	!	!	!	!	!	!
=50	=50	=50	=50	=50	=50	=50	=50	=50	=50	=50	=50	=50	=50	=50	=50	=50	=50
4G\	6	4.b/	.	8ff#\L	.	0r	.	00r	.	1r	.	.	1r	.	.	00r	00r
.	.	.	.	8ee\	.	.	.	.	.	.	.	.	.	.	.	.	.
4G\	.	.	.	8gg\	.	.	.	.	.	.	.	.	.	.	.	.	.
.	.	8g/	.	8ee\J	.	.	.	.	.	.	.	.	.	.	.	.	.
4A\	4	8g/L	.	8ee\L	.	.	.	.	.	.	.	.	.	.	.	.	.
.	.	8f#/	.	8dd\	.	.	.	.	.	.	.	.	.	.	.	.	.
4AA/	3	8f#/	.	8dd\	.	.	.	.	.	.	.	.	.	.	.	.	.
.	.	8e/J	.	8cc#\J	.	.	.	.	.	.	.	.	.	.	.	.	.
=51	=51	=51	=51	=51	=51	=51	=51	=51	=51	=51	=51	=51	=51	=51	=51	=51	=51
!	!	!	!	!	!LO:DY:a	!	!	!	!	!	!	!	!	!	!	!	!
4D\	.	4.f#/	.	4dd\	p	.	.	.	.	4r	.	.	4r	.	.	.	.
4r	.	.	p	8dd\L	.	.	.	.	.	8fn\L	Glo-	.	8dd\L	Glo-	.	.	.
.	.	16fn/LL	.	8ee\J	.	.	.	.	.	8g\J	.	.	8ee\J	.	.	.	.
.	.	16g/JJ	.	.	.	.	.	.	.	.	.	.	.	.	.	.	.
2r	.	4a/	.	4ffn\	.	.	.	.	.	4a\	-ri-	.	4ffn\	-ri-	.	.	.
.	.	4g/	.	4ee\	.	.	.	.	.	4g\	-a	.	4ee\	-a	.	.	.
=52	=52	=52	=52	=52	=52	=52	=52	=52	=52	=52	=52	=52	=52	=52	=52	=52	=52
4r	.	1fn/	.	1dd\	.	4r	.	.	.	1fn\	Pa-	.	1dd\	Pa-	.	.	.
4B-X\	5 3n	.	.	.	.	4B-X\	glo-	.	.	.	.	.	.	.	.	.	.
4A\	_	.	.	.	.	4A\	-ri-	.	.	.	.	.	.	.	.	.	.
4G#X\	x	.	.	.	.	4G#X\	.	.	.	.	.	.	.	.	.	.	.
=53	=53	=53	=53	=53	=53	=53	=53	=53	=53	=53	=53	=53	=53	=53	=53	=53	=53
2A\	#	4.e/	.	4cc#\	.	2A\	-a	.	.	4e\	-tri	.	4cc#\	-tri	.	.	.
.	.	.	.	8dd\L	.	.	.	.	.	8fn\L	Glo-	.	8dd\L	Glo-	.	.	.
.	.	16fn/LL	.	8ee\J	.	.	.	.	.	8g\J	.	.	8ee\J	.	.	.	.
.	.	16g/JJ	.	.	.	.	.	.	.	.	.	.	.	.	.	.	.
2r	.	4a/	.	4ffn\	.	2r	.	.	.	4a\	-ri-	.	4ffn\	-ri-	.	.	.
.	.	4g/	.	4ee\	.	.	.	.	.	4g\	-a	.	4ee\	-a	.	.	.
!	!	!	!	!	!	!	!	!	!	!	!	!	!LO:LB:g=original	!	!	!	!
=54	=54	=54	=54	=54	=54	=54	=54	=54	=54	=54	=54	=54	=54	=54	=54	=54	=54
4r	.	1fn/	.	1dd\	.	4r	.	00r	.	2.fn\	Fi-	.	2.dd\	Fi-	.	00r	00r
4B-X\	9 8	.	.	.	.	4B-X\	glo-	.	.	.	.	.	.	.	.	.	.
4A\	_	.	.	.	.	4A\	-ri-	.	.	.	.	.	.	.	.	.	.
4G#X\	x	.	.	.	.	4G#X\	.	.	.	4f\	-li-	.	4dd\	-li-	.	.	.
!	!	!	!	!	!	!LO:LB:g=original	!	!	!	!LO:LB:g=original	!	!	!	!	!	!	!
=55	=55	=55	=55	=55	=55	=55	=55	=55	=55	=55	=55	=55	=55	=55	=55	=55	=55
2A\	#	4e/	.	4cc#\	.	2A\	-a	.	.	4e\	-o	.	4cc#\	-o	.	.	.
.	.	8e/L	.	8cc#\L	.	.	.	.	.	8e\L	et	.	8cc#\L	et	.	.	.
.	.	8fn/J	.	8dd\J	.	.	.	.	.	8fn\J	.	.	8dd\J	.	.	.	.
2r	.	4g/	.	4ee\	.	2r	.	.	.	4g\	Spi-	.	4ee\	.	.	.	.
.	.	4f/	.	4dd\	.	.	.	.	.	4f\	-ri-	.	4dd\	Spi-	.	.	.
!	!	!	!	!LO:LB:g=original	!	!	!	!	!	!	!	!	!	!	!	!	!
!	!	!LO:LB:g=original	!	!	!	!	!	!	!	!	!	!	!	!	!	!	!
=56	=56	=56	=56	=56	=56	=56	=56	=56	=56	=56	=56	=56	=56	=56	=56	=56	=56
4r	.	2.e/	.	2.cc#\	.	4r	.	.	.	2.e\	-tu-	.	2.cc#\	-ri-	.	.	.
4AA/	#	.	.	.	.	4AA/	et	.	.	.	.	.	.	.	.	.	.
4A\	.	.	.	.	.	4A\	Spi-	.	.	.	.	.	.	.	.	.	.
4Gn\	.	8d/L	.	8b\L	.	4Gn\	-ri-	.	.	8d\L	.	.	8b\L	.	.	.	.
.	.	8e/J	.	8cc#\J	.	.	.	.	.	8e\J	.	.	8cc#\J	.	.	.	.
=57	=57	=57	=57	=57	=57	=57	=57	=57	=57	=57	=57	=57	=57	=57	=57	=57	=57
4Fn\	6	8fn/L	.	8dd\L	.	4Fn\	-tu-	.	.	4fn\	.	.	4dd\	-tu-	.	.	.
.	.	8a/	.	8ffn\	.	.	.	.	.	.	.	.	.	.	.	.	.
4G\	6	8b-X/	.	8gg\	.	4G\	-i	.	.	4g\	-i	.	4ee\	-i	.	.	.
.	.	8g/J	.	8ee\J	.	.	.	.	.	.	.	.	.	.	.	.	.
4A\	4	8g/L	.	8ee\L	.	4A\	Sanc-	.	.	4f\	Sanc-	.	4dd\	Sanc-	.	.	.
.	.	8f/	.	8dd\	.	.	.	.	.	.	.	.	.	.	.	.	.
4AA/	3	8f/	.	8dd\	.	4AA/	.	.	.	4e\	.	.	4cc#\	.	.	.	.
.	.	8e/J	.	8cc#\J	.	.	.	.	.	.	.	.	.	.	.	.	.
!LO:LB:g=original	!	!	!	!	!	!	!	!	!	!	!	!LO:LB:g=original	!	!	!	!	!
=58	=58	=58	=58	=58	=58	=58	=58	=58	=58	=58	=58	=58	=58	=58	=58	=58	=58
4D\	n	4fn/	.	8dd\L	.	4D\	-to	1r	.	4fn\	-to	.	4dd\	-to	.	1d/	1r
.	.	.	.	8a\	.	.	.	.	.	.	.	.	.	.	.	.	.
4r	.	8g/L	.	(8b\	.	4r	.	.	.	4r	.	.	4r	.	.	.	.
.	.	8e/J	.	8ccn\J)	.	.	.	.	.	.	.	.	.	.	.	.	.
2r	.	8e/L	.	(8cc\L	.	2r	.	.	.	2r	.	.	2r	.	.	.	.
.	.	8f#X/	.	8dd\)	.	.	.	.	.	.	.	.	.	.	.	.	.
.	.	8f#/	.	(8dd\	.	.	.	.	.	.	.	.	.	.	.	.	.
.	.	8g/J	.	8ee\J)	.	.	.	.	.	.	.	.	.	.	.	.	.
=59	=59	=59	=59	=59	=59	=59	=59	=59	=59	=59	=59	=59	=59	=59	=59	=59	=59
!LO:TX:a:rj:t=Tutti	!	!	!LO:DY:a:rj	!	!LO:DY:a	!	!	!	!	!	!	!LO:DY:a	!	!	!	!	!
4D\	.	4.f#/	f	4.dd\	f	4D\	Si-	4d\	Si-	4a\	Si-	f	4ff#X\	Si-	.	1d/	1dd\
4D\	.	.	.	.	.	4D\	-cut	4d\	-cut	4a\	-cut	.	4ff#\	-cut	.	.	.
.	.	16g/LL	.	16ee\LL	.	.	.	.	.	.	.	.	.	.	.	.	.
.	.	16a/JJ	.	16ff#X\JJ	.	.	.	.	.	.	.	.	.	.	.	.	.
!	!	!	!	!	!	!	!	!	!	!LO:LB:g=original	!	!	!	!	!	!	!
4D\	.	4f#/	.	8dd\L	.	4D\	e-	4d\	e-	4a\	e-	.	4ff#\	e-	.	.	.
.	.	.	.	8cc#\	.	.	.	.	.	.	.	.	.	.	.	.	.
4D\	.	4f#/	.	8b\	.	4D\	-rat	4d\	-rat	4a\	-rat	.	4ff#\	-rat	.	.	.
.	.	.	.	8a\J	.	.	.	.	.	.	.	.	.	.	.	.	.
!	!	!	!	!	!	!LO:LB:g=original	!	!	!	!	!	!	!	!	!	!	!
=60	=60	=60	=60	=60	=60	=60	=60	=60	=60	=60	=60	=60	=60	=60	=60	=60	=60
4D\	6 7	4g/	.	8b\L	.	4D\	in	4d\	in	4b\	in	.	4gg\	in	.	1d/	1dd\
.	.	.	.	8cc#\	.	.	.	.	.	.	.	.	.	.	.	.	.
4D\	.	4g/	.	8dd\	.	4D\	prin-	4d\	prin-	4b\	prin-	.	4gg\	prin-	.	.	.
.	.	.	.	8b\J	.	.	.	.	.	.	.	.	.	.	.	.	.
!	!	!	!	!	!	!	!	!LO:LB:g=original	!	!	!	!	!	!	!	!	!
4D\	7 2	4e/	.	8cc#\L	.	4D\	-ci-	4d\	-ci-	4cc#\	-ci-	.	4ee\	-ci-	.	.	.
.	.	.	.	8dd\	.	.	.	.	.	.	.	.	.	.	.	.	.
4D\	.	4e/	.	8ee\	.	4D\	-pi-	4d\	-pi-	4cc#\	-pi-	.	4ee\	-pi-	.	.	.
.	.	.	.	8cc#\J	.	.	.	.	.	.	.	.	.	.	.	.	.
!	!	!LO:LB:g=original	!	!LO:LB:g=original	!	!	!	!	!	!	!	!	!	!	!	!	!
=61	=61	=61	=61	=61	=61	=61	=61	=61	=61	=61	=61	=61	=61	=61	=61	=61	=61
4D\	3	4.f#/	.	4.dd\	.	4D\	-o	4d\	-o	4dd\	-o	.	4ff#\	-o	.	1d/	1dd\
4D\	.	.	.	.	.	4D\	et	4d\	et	4dd\	et	.	4ff#\	et	.	.	.
.	.	(16g/LL	.	16ee\LL	.	.	.	.	.	.	.	.	.	.	.	.	.
.	.	16a/JJ)	.	16ff#\JJ	.	.	.	.	.	.	.	.	.	.	.	.	.
4D\	.	4f#/	.	8dd\L	.	4D\	nunc	4d\	nunc	4a\	nunc	.	4ff#\	nunc	.	.	.
.	.	.	.	8cc#\	.	.	.	.	.	.	.	.	.	.	.	.	.
4D\	.	4f#/	.	8b\	.	4D\	et	4d\	et	4a\	et	.	4ff#\	et	.	.	.
.	.	.	.	8a\J	.	.	.	.	.	.	.	.	.	.	.	.	.
!	!	!	!	!	!	!	!	!	!	!	!	!	!LO:LB:g=original	!	!	!	!
=62	=62	=62	=62	=62	=62	=62	=62	=62	=62	=62	=62	=62	=62	=62	=62	=62	=62
4D\	6 4	4g/	.	8b\L	.	1D\	Sem-	1d\	Sem-	2b\	Sem-	.	2gg\	Sem-	.	4d/	1dd\
.	.	.	.	8cc#\	.	.	.	.	.	.	.	.	.	.	.	.	.
4D\	.	4f#/	.	8dd\	.	.	.	.	.	.	.	.	.	.	.	4r	.
.	.	.	.	8b\J	.	.	.	.	.	.	.	.	.	.	.	.	.
4D\	7 2	4e/	.	8cc#\L	.	.	.	.	.	2cc#\	-per	.	2ee\	.	.	2r	.
.	.	.	.	8dd\	.	.	.	.	.	.	.	.	.	.	.	.	.
4D\	.	4e/	.	8ee\	.	.	.	.	.	.	.	.	.	.	.	.	.
.	.	.	.	8cc#\J	.	.	.	.	.	.	.	.	.	.	.	.	.
=63	=63	=63	=63	=63	=63	=63	=63	=63	=63	=63	=63	=63	=63	=63	=63	=63	=63
4D\	3	4f#/	.	8dd\L	.	2D\	-per	2d\	-per	2dd\	.	.	2ff#\	-per	.	1r	4dd\
.	.	.	.	8ff#\J	.	.	.	.	.	.	.	.	.	.	.	.	.
4D\	.	4f#/	.	(4.aa\	.	.	.	.	.	.	.	.	.	.	.	.	4r
4D#X\	6 5	4ff#\	.	.	.	4D#X\	et	4B\	et	4a\	et	.	4ff#\	et	.	.	2r
.	.	.	.	8ff#\L)	.	.	.	.	.	.	.	.	.	.	.	.	.
4D#\	.	4ff#\	.	(8bb\	.	4D#\	in	4B\	in	8b\L	in	.	4ff#\	in	.	.	.
.	.	.	.	8aa\J)	.	.	.	.	.	8a\J	.	.	.	.	.	.	.
!	!	!	!	!	!	!	!	!	!	!LO:LB:g=original	!	!	!	!	!	!	!
=64	=64	=64	=64	=64	=64	=64	=64	=64	=64	=64	=64	=64	=64	=64	=64	=64	=64
4E\	#	4b\	.	(8aa\L	.	2E\	Se-	2B\	Se-	2g#X\	Sae-	.	2ee\	Se-	.	1r	1r
.	.	.	.	8gg#X\J)	.	.	.	.	.	.	.	.	.	.	.	.	.
4E\	6 5n	4b\	.	4gg#\	.	.	.	.	.	.	.	.	.	.	.	.	.
4C#/	.	4ee\	.	8r	.	4C#/	-cu-	4A\	-cu-	4gn\	-cu-	.	4ee\	-cu-	.	.	.
.	.	.	.	8ee\L	.	.	.	.	.	.	.	.	.	.	.	.	.
4C#/	.	4ee\	.	8aa\	.	4C#/	-la	4A\	-la	8a\L	-la	.	4ee\	-la	.	.	.
.	.	.	.	8ggn\J	.	.	.	.	.	8g\J	.	.	.	.	.	.	.
!LO:LB:g=original	!	!	!	!	!	!LO:LB:g=original	!	!LO:LB:g=original	!	!	!	!	!	!	!	!	!
=65	=65	=65	=65	=65	=65	=65	=65	=65	=65	=65	=65	=65	=65	=65	=65	=65	=65
4D\	.	4dd\	.	8gg\L	.	2Dn\	Se-	2A\	Se-	2f#\	Se-	.	2dd\	Secu-	.	4r	4r
.	.	.	.	8ff#\J	.	.	.	.	.	.	.	.	.	.	.	.	.
4D\	.	4dd\	.	4.aa\	.	.	.	.	.	.	.	.	.	.	.	4dd\	4ff#\
4F#\	6	4dd\	.	.	.	2F#\	-cu-	2d\	-cu-	2a\	-cu-	.	2dd\	-lo-	.	4dd\	4ff#\
.	.	.	.	8ff#\L	.	.	.	.	.	.	.	.	.	.	.	.	.
4F#\	.	4a/	.	8ee\	.	.	.	.	.	.	.	.	.	.	.	4dd\	4ff#\
.	.	.	.	8dd\J	.	.	.	.	.	.	.	.	.	.	.	.	.
!	!	!LO:LB:g=original	!	!LO:LB:g=original	!	!	!	!	!	!	!	!	!	!	!	!	!
=66	=66	=66	=66	=66	=66	=66	=66	=66	=66	=66	=66	=66	=66	=66	=66	=66	=66
4G\	6	4.b/	.	8ff#\L	.	4G\	-lo-	4B\	-lo-	4g\	-lo-	.	4ee\	-rum	.	2ee\	2gg\
.	.	.	.	8ee\	.	.	.	.	.	.	.	.	.	.	.	.	.
4G\	.	.	.	8gg\	.	4G\	-rum	4B\	-rum	4g\	-rum	.	4ee\	a-	.	.	.
.	.	8g/	.	8ee\J	.	.	.	.	.	.	.	.	.	.	.	.	.
4A\	4	8g/L	.	8ee\L	.	4A\	a-	2A\	a-	4f#\	a-	.	4dd\	.	.	4dd\	4ee\
.	.	8f#/	.	8dd\	.	.	.	.	.	.	.	.	.	.	.	.	.
4AA/	3	8f#/	.	8dd\	.	4AA/	.	.	.	4e\	.	.	4cc#\	-men	.	4a/	4ee\
.	.	8e/J	.	8cc#\J	.	.	.	.	.	.	.	.	.	.	.	.	.
!	!	!	!	!	!	!	!	!	!	!	!	!	!LO:LB:g=original	!	!	!	!LO:LB:g=original
=67	=67	=67	=67	=67	=67	=67	=67	=67	=67	=67	=67	=67	=67	=67	=67	=67	=67
4D\	.	4f#/	.	4dd\	.	4D\	-men	4A\	-men	2f#\	-men	.	4dd\	a-	.	4f#/	4dd\
4B\	.	4dd\ 4f#\	.	4ddd\ 4ff#\	.	4B\	a-	2B\	a-	.	.	.	2dd\	.	.	4dd\	4ff#\
4G\	6 5	4dd\ 4e\	.	4ddd\ 4ee\	.	4G\	.	.	.	2e\	a-	.	.	.	.	4dd\	4ee\
4A\	.	4cc#\ 4e\	.	4ccc#\ 4ee\	.	4A\	.	4A\	.	.	.	.	4cc#\	.	.	4a/	4ee\
!	!	!	!	!	!	!	!	!	!	!	!	!	!	!	!	!LO:LB:g=original	!
=68	=68	=68	=68	=68	=68	=68	=68	=68	=68	=68	=68	=68	=68	=68	=68	=68	=68
*	*	*^	*	*	*	*	*	*	*	*	*	*	*	*	*	*	*
2D\	.	2dd/	2f#\	.	2ddd\ 2ff#\	.	2D\	-men	2A\	-men	2f#\	-men	.	2dd\	-men	.	2f#/	2dd\
2r	.	2r	2ryy	.	2r	.	2r	.	2r	.	2r	.	.	2r	.	.	2r	2r
*	*	*v	*v	*	*	*	*	*	*	*	*	*	*	*	*	*	*	*
==	==	==	==	==	==	==	==	==	==	==	==	==	==	==	==	==	==
*-	*-	*-	*-	*-	*-	*-	*-	*-	*-	*-	*-	*-	*-	*-	*-	*-	*-
!!!system-decoration: [(s1,s2)][(s3,s4,s5,s6)][(s7,s8)]s9
!!!RDF**dynam: p = p.
!!!RDF**dynam: f = f.
!!!ENC: Berenika Jozajtis
!!!END: 2021-11-29
!!!ENC: Leszek Kubiak
!!!END: 2021-12-13
